public/instagram.svg

<svg width="30" height="30" viewBox="0 0 30 30" fill="none" xmlns="http://www.w3.org/2000/svg">
<circle cx="15" cy="15" r="15" fill="white"/>
<path fill-rule="evenodd" clip-rule="evenodd" d="M10.3343 6.125C8.00959 6.125 6.125 8.00959 6.125 10.3343V19.753C6.125 22.0778 8.00959 23.9624 10.3343 23.9624H19.753C22.0778 23.9624 23.9624 22.0778 23.9624 19.753V10.3343C23.9624 8.00959 22.0778 6.125 19.753 6.125H10.3343ZM5.125 10.3343C5.125 7.4573 7.4573 5.125 10.3343 5.125H19.753C22.6301 5.125 24.9624 7.4573 24.9624 10.3343V19.753C24.9624 22.6301 22.6301 24.9624 19.753 24.9624H10.3343C7.4573 24.9624 5.125 22.6301 5.125 19.753V10.3343ZM15.5639 11.7706C14.884 11.6698 14.1897 11.7859 13.5797 12.1025C12.9696 12.419 12.475 12.9199 12.166 13.5337C11.857 14.1476 11.7494 14.8433 11.8586 15.5219C11.9678 16.2004 12.2882 16.8273 12.7741 17.3132C13.2601 17.7992 13.8869 18.1196 14.5655 18.2288C15.244 18.3379 15.9397 18.2304 16.5536 17.9214C17.1675 17.6124 17.6683 17.1177 17.9849 16.5077C18.3014 15.8976 18.4175 15.2033 18.3167 14.5235C18.2139 13.83 17.8908 13.188 17.395 12.6923C16.8993 12.1966 16.2573 11.8735 15.5639 11.7706ZM13.1191 11.2149C13.9159 10.8014 14.8227 10.6498 15.7106 10.7815C16.6162 10.9158 17.4547 11.3378 18.1022 11.9852C18.7496 12.6326 19.1716 13.4711 19.3059 14.3768C19.4376 15.2647 19.2859 16.1715 18.8725 16.9682C18.4591 17.765 17.805 18.4111 17.0032 18.8146C16.2014 19.2182 15.2928 19.3587 14.4066 19.2161C13.5204 19.0734 12.7017 18.655 12.067 18.0203C11.4323 17.3856 11.0139 16.567 10.8713 15.6807C10.7287 14.7945 10.8692 13.8859 11.2727 13.0842C11.6763 12.2824 12.3224 11.6283 13.1191 11.2149ZM20.224 9.36342C19.9478 9.36342 19.724 9.58728 19.724 9.86342C19.724 10.1396 19.9478 10.3634 20.224 10.3634H20.2348C20.5109 10.3634 20.7348 10.1396 20.7348 9.86342C20.7348 9.58728 20.5109 9.36342 20.2348 9.36342H20.224Z" fill="black"/>
</svg>

<svg xmlns="http://www.w3.org/2000/svg" width="30" height="30" fill="none"><circle cx="15" cy="15" r="15" fill="#fff"/><path fill="#000" fill-rule="evenodd" d="M10.334 6.125a4.21 4.21 0 0 0-4.209 4.21v9.418a4.21 4.21 0 0 0 4.21 4.21h9.418a4.21 4.21 0 0 0 4.21-4.21v-9.419a4.21 4.21 0 0 0-4.21-4.209zm-5.209 4.21a5.21 5.21 0 0 1 5.21-5.21h9.418a5.21 5.21 0 0 1 5.21 5.21v9.418a5.21 5.21 0 0 1-5.21 5.21h-9.419a5.21 5.21 0 0 1-5.209-5.21zm10.439 1.436a3.267 3.267 0 1 0-.959 6.463 3.267 3.267 0 0 0 .959-6.463m-2.445-.556a4.267 4.267 0 1 1 3.93 7.574 4.267 4.267 0 0 1-3.93-7.574m7.105-1.852a.5.5 0 1 0 0 1h.01a.5.5 0 1 0 0-1z" clip-rule="evenodd"/></svg>
